packages/webapp/public/images/template-logos/lever-basic.svg

<svg width="62" height="62" viewBox="0 0 62 62" fill="none" xmlns="http://www.w3.org/2000/svg">
<path d="M51.0625 49.4862L43.2835 41.7059C43.0378 41.465 42.7074 41.3301 42.3634 41.3301C42.0193 41.3301 41.689 41.465 41.4433 41.7059L33.6643 49.4862C33.4788 49.663 33.3515 49.8922 33.2994 50.1432C33.2473 50.3941 33.2729 50.655 33.3727 50.8911C33.4725 51.1272 33.6419 51.3273 33.8582 51.4648C34.0745 51.6023 34.3276 51.6706 34.5837 51.6608H50.143C50.3977 51.6671 50.6484 51.5967 50.8624 51.4586C51.0765 51.3205 51.244 51.1212 51.3432 50.8865C51.4424 50.6519 51.4687 50.3929 51.4186 50.1431C51.3685 49.8933 51.2444 49.6644 51.0625 49.4862Z" fill="#C3C6CC"/>
<path d="M51.3214 21.5418L48.8847 14.3077C48.7747 13.9806 48.5994 13.6792 48.3694 13.4219L10.4248 51.3652C10.6475 51.5645 10.9384 51.6704 11.2371 51.6609H22.0145C22.3158 51.6624 22.6143 51.6044 22.8931 51.4903C23.1718 51.3762 23.4253 51.2081 23.639 50.9959L50.8049 23.83C51.1001 23.5375 51.3056 23.1667 51.3971 22.7613C51.4887 22.3559 51.4624 21.9328 51.3214 21.5418Z" fill="#E1E3E6"/>
<path d="M47.4828 12.9036L40.2487 10.4681C39.8577 10.3271 39.4346 10.3009 39.0292 10.3924C38.6238 10.4839 38.253 10.6894 37.9605 10.9846L10.7934 38.1504C10.366 38.5828 10.1273 39.167 10.1296 39.7749V50.5524C10.1201 50.8511 10.226 51.142 10.4253 51.3647L48.3699 13.4214C48.1122 13.1906 47.8105 13.0145 47.4828 12.9036Z" fill="#C3C6CC"/>
</svg>

<svg xmlns="http://www.w3.org/2000/svg" width="62" height="62" fill="none"><path d="M51.063 49.486l-7.779-7.78c-.246-.241-.576-.376-.92-.376s-.674.135-.92.376l-7.779 7.78a1.26 1.26 0 0 0-.292 1.405 1.26 1.26 0 0 0 1.211.77h15.559a1.27 1.27 0 0 0 1.2-.774 1.27 1.27 0 0 0-.281-1.4z" fill="#c3c6cc"/><path d="M51.321 21.541l-2.437-7.234a2.55 2.55 0 0 0-.515-.886L10.425 51.365c.223.199.514.305.812.296h10.777a2.29 2.29 0 0 0 1.624-.665L50.805 23.83a2.18 2.18 0 0 0 .516-2.288z" fill="#e1e3e6"/><path d="M47.483 12.903l-7.234-2.436a2.18 2.18 0 0 0-2.288.517L10.793 38.15a2.3 2.3 0 0 0-.664 1.624v10.778c-.009.299.096.59.296.812L48.37 13.421a2.56 2.56 0 0 0-.887-.518z" fill="#c3c6cc"/></svg>
